static/icons/paypal.svg

<?xml version="1.0" encoding="UTF-8"?>
<svg xmlns="http://www.w3.org/2000/svg" xmlns:xlink="http://www.w3.org/1999/xlink" width="48px" height="48px" viewBox="0 0 48 48" version="1.1">
<g id="surface1">
<path style=" stroke:none;fill-rule:nonzero;fill:rgb(8.235294%,39.607844%,75.294119%);fill-opacity:1;" d="M 18.699219 13.765625 L 18.703125 13.769531 C 18.804688 13.320312 19.199219 13 19.660156 13 L 33.132812 13 C 33.148438 13 33.164062 12.992188 33.183594 12.992188 C 32.894531 8.214844 28.886719 6 25.351562 6 L 11.878906 6 C 11.417969 6.003906 11.019531 6.328125 10.921875 6.777344 L 10.917969 6.773438 L 5.027344 33.8125 L 5.042969 33.8125 C 5.027344 33.878906 5.003906 33.9375 5.003906 34.007812 C 5.003906 34.5625 5.449219 35 6.003906 35 L 14.074219 35 Z M 18.699219 13.765625 "/>
<path style=" stroke:none;fill-rule:nonzero;fill:rgb(1.176471%,60.784316%,89.803922%);fill-opacity:1;" d="M 33.183594 12.992188 C 33.238281 13.960938 33.160156 14.929688 32.953125 15.875 C 31.671875 21.871094 27.042969 24.992188 21.320312 24.992188 L 17.007812 24.992188 C 16.628906 24.972656 16.28125 25.1875 16.125 25.53125 L 14.386719 33.578125 L 14.082031 35.007812 L 14.074219 35.007812 L 12.8125 40.804688 L 12.824219 40.804688 C 12.8125 40.871094 12.785156 40.929688 12.785156 41 C 12.785156 41.550781 13.234375 42 13.785156 42 L 21.117188 42 L 21.132812 41.988281 C 21.59375 41.980469 21.984375 41.652344 22.078125 41.203125 L 22.09375 41.1875 L 23.90625 32.769531 C 23.90625 32.769531 24.03125 31.96875 24.878906 31.96875 L 29.054688 31.96875 C 34.777344 31.96875 39.457031 28.863281 40.738281 22.867188 C 42.179688 16.105469 37.359375 13.019531 33.183594 12.992188 Z M 33.183594 12.992188 "/>
<path style=" stroke:none;fill-rule:nonzero;fill:rgb(15.686275%,20.784314%,57.647061%);fill-opacity:1;" d="M 19.660156 13 C 19.199219 13 18.800781 13.320312 18.703125 13.769531 L 18.699219 13.765625 L 16.125 25.53125 C 16.28125 25.1875 16.628906 24.976562 17.003906 24.992188 L 21.238281 24.992188 C 26.964844 24.992188 31.671875 21.871094 32.953125 15.878906 C 33.160156 14.929688 33.238281 13.960938 33.183594 12.996094 C 33.164062 12.992188 33.148438 13 33.132812 13 Z M 19.660156 13 "/>
</g>
</svg>

<svg xmlns="http://www.w3.org/2000/svg" width="48" height="48"><path fill="#1565C0" d="m18.7 13.767.005.002A.977.977 0 0 1 19.66 13h13.472c.017 0 .034-.007.051-.006C32.896 8.215 28.887 6 25.35 6H11.878a.984.984 0 0 0-.955.777l-.005-.002-5.889 27.038.013.001c-.014.064-.039.125-.039.194 0 .553.447.991 1 .991h8.071L18.7 13.767z"/><path fill="#039BE5" d="M33.183 12.994a10.65 10.65 0 0 1-.229 2.882c-1.281 5.995-5.912 9.115-11.635 9.115h-4.313a.919.919 0 0 0-.88.54l-1.74 8.049-.305 1.429h-.006l-1.263 5.796.013.001c-.014.064-.039.125-.039.194a1 1 0 0 0 1 1h7.333l.013-.01a.985.985 0 0 0 .945-.788l.018-.015 1.812-8.416s.126-.803.97-.803h4.178c5.723 0 10.401-3.106 11.683-9.102 1.442-6.76-3.38-9.847-7.555-9.872z"/><path fill="#283593" d="M19.66 13a.976.976 0 0 0-.955.769l-.005-.002-2.575 11.765a.919.919 0 0 1 .88-.54h4.235c5.723 0 10.432-3.12 11.713-9.115a10.61 10.61 0 0 0 .229-2.882c-.016-.002-.034.005-.05.005H19.66z"/></svg>
